public/fonts/icons/text-center.svg

<?xml version="1.0" encoding="utf-8"?>

<!DOCTYPE svg PUBLIC "-//W3C//DTD SVG 1.1//EN" "http://www.w3.org/Graphics/SVG/1.1/DTD/svg11.dtd">
<svg version="1.1" xmlns="http://www.w3.org/2000/svg" xmlns:xlink="http://www.w3.org/1999/xlink" width="32" height="32" viewBox="0 0 32 32">
<g>
</g>
	<path d="M0 6h32v2h-32zM6 10h20v2h-20zM6 18h20v2h-20zM6 26h20v2h-20zM0 14h32v2h-32zM0 22h32v2h-32z" fill="#000000"></path>
</svg>

<svg xmlns="http://www.w3.org/2000/svg" width="32" height="32" viewBox="0 0 32 32"><title>Text Center</title><path d="M0 6h32v2H0zm6 4h20v2H6zm0 8h20v2H6zm0 8h20v2H6zM0 14h32v2H0zm0 8h32v2H0z"/></svg>
